X:92
T:Paddy O'Connell's
R:slide
D:M\'aire O'Keeffe: C\'oisir / House Party
Z:id:hn-slide-92
M:6/8
L:1/8
K:G
B2d B2d | BAG B2d | A2F ABc | A2F ABc |
B2d B2d | BAG B2d | A2F ABA |1 G3 G2A :|2 G3 G3 ||
|: ~g3 d2g | gfg d2e | ~f3 A2f | fef def |
~g3 d2g | gfg d2g | fed cAF |1 G3 G3 :|2 G3 G2A ||
<end>
<start>
